T: Thistle Schottische, The
M: 4/4
L: 1/8
K: Gmaj
d>G (3BAG E>G_E>G | D6 (3Bc^c | d>G (3BAG E>FG>^G | A6 (3BAG | A>GB,>C D>G (3A^GA | A>A,B>B, c2 (3Bc^c  | d>^cd>B A>GE>F | G6 (3Bc^c  |d>G (3BAG E>G_E>G | D6 (3Bc^c | d>G (3BAG E>FG>^G | A>fe>^c d2 (3BAG | A>GB,>C D2 (3GFG | A>A,B>B, c2 (3Bc^c | d>^cd>B A>GE>F | G4- G>D  ||D4- D>B,C>B, | E6 F>G | (3ABA ^G>A d>AG>A | B6 (3GFG | A>GB,>C D>G (3GFG | A>A,B>B, c2 (3Bc^c | d>^cd>B A>GE>F | G6 :|(3ded (3BdB GBdB | (3cec (3AcA E2 A>G | (3FAc f>e (3ded (3cBA | (3GBA (3GFE D2 B>c |(3ded (3BdB GBdB | (3cec (3AcA E2 A>G | (3FAc f>e (3ded (3cBA | G2 B2 G2- GB |(3dgd (3BdB (3GBd (3gdB | (3cec (3AcA E2 A>G | (3FAc f>e (3ded (3cBA | (3GBA (3GFE (3DEF (3GAB |(3dgd (3BdB (3GBd (3gdB | (3cec (3AcA (3EAc (3ecA | (3FAc f>e (3ded (3cBA | (3GBd (3gdB G2 |]d>B (3BAG E2 _E2 | D4- D>A (3Bc^c | d>B (3BAG A>EF>G | A>fe>^c d2 B>F | A>GE>G D2 (3EFG | A>A,B>B, c2 ^c2 | (3ddd d>B A>GE>F |[1 G4- G>A :|[2 G2 G2 G>D (3B,C^C |||: D4- D>B,C>B, | E4- E>A^G>A | B>A^G>A d>AG>A | B4- B>B (3BBF | A>GE>G D2 (3EFG | A>A,B>B, c2 ^c2 | (3ddd d>B A>GE>F |[1 G2 G2 G>D (3B,C^C :|[2 G2 G2 G>A ||(3dgd (3BdB G>Bd>B | (3cec (3AcA E>cA>G | (3FAc f>e (3ded (3cBA | G2 (3BGE D2 (3Bc^c  |(3dgd (3BdB G>Bd>B | (3cec (3AcA E2 A>G | (3FAc f>e (3ded (3cBA |[1 G2 F2 G2 :|[2 G2 B2 c2 ^c2 |||: d2 (3BAG E2 _E2 | D4- D>A (3Bc^c | d>B (3BAG A>EF>G | A>fe>^c d2 B>F | A>GE>G D>G (3EFG | A>A,B>B, c2 ^c2 | d2- d>B A>GE>F |[1 G2 G2 G>A (3Bc^c :|[2 G2 (3AGF G>D ||D4- D>B,C>B, | E4- E>A^G>A | B>A^G>A d>AG>A | B4- B>B (3BBF | A>GE>G D2 (3EFG | A>A,B>B, c2 ^c2 | (3ddd d>B A>GE>F |[1 G2 (3GGF G>D :|[2 G2 (3GGF G>A ||(3dgd (3BdB (3GBd (3gdB | (3cec (3AcA (3EAc (3ecA | (3FAc (3fgf (3ded (3cBA | (3GFG (3BGE D2 (3Bc^c |(3dgd (3BdB (3GBd (3gdB | (3cec (3AcA (3EAc (3ecA | (3FAc (3fgf (3ded (3cBA | (3GFG (3BAF G2 :|
